public/img/icons/youtube.svg

<svg width="25" height="16" viewBox="0 0 25 16" fill="none" xmlns="http://www.w3.org/2000/svg">
<g clip-path="url(#clip0_2_150)">
<path d="M16.3009 7.76704C14.0572 6.65091 11.9089 5.6248 9.71289 4.55347V10.9624C12.0237 9.79307 14.4595 8.72216 16.3104 7.76704H16.3009Z" fill="white"/>
<path d="M16.3009 7.76704C14.0572 6.65091 9.71289 4.55347 9.71289 4.55347L15.505 8.1774C15.5055 8.1774 14.4499 8.72216 16.3009 7.76704Z" fill="#E8E0E0"/>
<path d="M10.1347 15.9793C5.47434 15.8994 3.88262 15.8275 2.90425 15.6399C2.24232 15.5152 1.6671 15.2384 1.24533 14.8369C0.919361 14.5331 0.660127 14.0695 0.459005 13.4262C0.286485 12.8904 0.219293 12.4445 0.123499 11.3554C-0.0231431 8.89748 -0.0581011 6.88794 0.123499 4.64258C0.273319 3.40262 0.345959 1.93064 1.34113 1.07189C1.81102 0.669979 2.35763 0.411338 2.97144 0.304416C3.93029 0.134946 8.01538 0.000976562 12.2444 0.000976562C16.4639 0.000976562 20.558 0.134946 21.5178 0.304416C22.2846 0.438385 23.0037 0.83987 23.426 1.35758C24.334 2.68713 24.3499 4.3404 24.442 5.63361C24.4802 6.24979 24.4802 9.74863 24.442 10.3648C24.2986 12.4086 24.1832 13.1317 23.8573 13.8814C23.6557 14.3547 23.4836 14.6045 23.1858 14.8813C22.7187 15.3073 22.1232 15.5906 21.4788 15.6936C17.4459 15.9759 14.0213 16.0372 10.1347 15.9793ZM16.3104 7.76698C14.0667 6.65085 11.9184 5.61586 9.72242 4.54453V10.9539C12.0333 9.78456 14.4694 8.71322 16.32 7.75811L16.3104 7.76698Z" fill="#CD201F"/>
</g>
<defs>
<clipPath id="clip0_2_150">
<rect width="24.4706" height="16" fill="white"/>
</clipPath>
</defs>
</svg>

<svg width="25" height="16" fill="none" xmlns="http://www.w3.org/2000/svg"><g clip-path="url(#a)"><path d="M16.3 7.767c-2.243-1.116-4.391-2.142-6.587-3.214v6.41c2.31-1.17 4.747-2.24 6.597-3.196h-.01Z" fill="#fff"/><path d="M16.3 7.767c-2.243-1.116-6.587-3.214-6.587-3.214l5.792 3.624s-1.055.545.796-.41Z" fill="#E8E0E0"/><path d="M10.135 15.98c-4.66-.08-6.252-.152-7.23-.34-.663-.125-1.238-.402-1.66-.803-.326-.304-.585-.768-.786-1.41-.173-.537-.24-.982-.336-2.072-.146-2.458-.181-4.467 0-6.712.15-1.24.223-2.712 1.218-3.571a3.36 3.36 0 0 1 1.63-.768c.96-.17 5.044-.303 9.273-.303 4.22 0 8.314.134 9.274.303.767.134 1.486.536 1.908 1.054.908 1.33.924 2.982 1.016 4.276.038.616.038 4.115 0 4.73-.143 2.045-.259 2.768-.585 3.517-.201.474-.373.723-.671 1a3.307 3.307 0 0 1-1.707.813c-4.033.282-7.458.343-11.344.285Zm6.175-8.213c-2.243-1.116-4.392-2.151-6.588-3.222v6.409c2.311-1.17 4.747-2.24 6.598-3.196l-.01.009Z" fill="#CD201F"/></g><defs><clipPath id="a"><path fill="#fff" d="M0 0h24.471v16H0z"/></clipPath></defs></svg>
